public/icons/logo-galinie.svg

<svg width="82" height="74" viewBox="0 0 82 74" fill="none" xmlns="http://www.w3.org/2000/svg">
<path d="M6.1 72.1C4.3 70.9667 2.9 69.3667 1.9 67.3C0.900001 65.1667 0.433334 63.0333 0.5 60.9C0.433334 56.7667 0.766667 52.6 1.5 48.4C2.3 44.1333 3.33333 40 4.6 36C5.46667 33.6 6.4 31.1333 7.4 28.6C8.46667 26 9.53333 23.5667 10.6 21.3C11.6667 19.0333 12.6 17.2333 13.4 15.9C15.4667 12.5 17.6333 9.7 19.9 7.5C22.2333 5.23333 23.9667 3.76666 25.1 3.1C26.0333 2.56666 27.6333 2.03333 29.9 1.5C32.2333 0.966664 34.6333 0.999997 37.1 1.6C38.8333 2.06666 40.4333 2.63333 41.9 3.3C43.4333 3.96667 44.4333 4.53333 44.9 5C45.4333 5.8 45.9 6.5 46.3 7.1C46.7667 7.63333 47 8.3 47 9.1C47.0667 9.63333 46.8667 10.3 46.4 11.1C46 11.8333 45.4667 12.3667 44.8 12.7C44.2 13.0333 43.6 12.8667 43 12.2C42.1333 10.8667 41.2333 9.96667 40.3 9.5C39.3667 8.96666 38.3667 8.43333 37.3 7.9C36.5667 7.43333 35.5667 7.2 34.3 7.2C33.0333 7.13333 31.7333 7.26666 30.4 7.6C29.0667 7.93333 27.9 8.5 26.9 9.3C26.2333 9.9 25.3667 10.8 24.3 12C23.2333 13.1333 22.1667 14.4 21.1 15.8C20.0333 17.2 19.1667 18.5667 18.5 19.9C16.7 23.0333 15.0667 26.2 13.6 29.4C12.2 32.5333 11 35.9667 10 39.7C9.73333 40.6333 9.36667 42 8.9 43.8C8.5 45.6 8.1 47.4 7.7 49.2C7.3 51 7.03333 52.4667 6.9 53.6C6.43333 56.8667 6.26667 59.7333 6.4 62.2C6.6 64.6667 7.46667 66.3667 9 67.3C10.5333 68.2333 13.0667 68.1 16.6 66.9C18.1333 66.7 19.7667 66.0333 21.5 64.9C23.3 63.7667 25.0333 62.3667 26.7 60.7C28.4333 58.9667 29.9 57.1333 31.1 55.2C32.2333 53.0667 33.2333 50.9667 34.1 48.9C35.0333 46.8333 35.5333 45.1333 35.6 43.8C35.6667 42.4667 35.0333 41.8333 33.7 41.9C31.2333 41.6333 29.2333 41.5667 27.7 41.7C26.1667 41.7667 24.8 41.5333 23.6 41C23.1333 40.2667 22.9333 39.5333 23 38.8C23.0667 38.0667 23.4667 37.3333 24.2 36.6C24.9333 36.3333 26.1667 36.1333 27.9 36C29.6333 35.8667 31.5 35.9333 33.5 36.2C35.5 36.4 37.2667 36.8667 38.8 37.6C39.9333 38.1333 40.7333 38.9333 41.2 40C41.6667 41 41.9 42.1667 41.9 43.5C41.9 44.8333 41.7667 46.2 41.5 47.6C41.1667 49.0667 40.4333 50.8333 39.3 52.9C38.2333 54.9 36.9333 57.0333 35.4 59.3C34.4 60.7 33 62.2333 31.2 63.9C29.4667 65.5667 27.6667 67.0667 25.8 68.4C24 69.7333 22.4667 70.6333 21.2 71.1C18.5333 72.3 15.8 73.0667 13 73.4C10.2 73.8 7.9 73.3667 6.1 72.1ZM40.2985 68.136C40.2345 68.008 40.1545 67.912 40.0585 67.848C39.9625 67.768 39.9145 67.696 39.9145 67.632C39.9145 67.568 39.9065 67.504 39.8905 67.44C39.8905 67.36 39.8585 67.288 39.7945 67.224C39.7145 67.128 39.7225 66.912 39.8185 66.576C39.9145 66.224 40.0745 65.8 40.2985 65.304C40.5225 64.792 40.7865 64.256 41.0905 63.696C41.2185 63.568 41.3465 63.4 41.4745 63.192C41.6025 62.984 41.6985 62.848 41.7625 62.784C41.7625 62.72 41.7865 62.664 41.8345 62.616C41.8825 62.552 41.9385 62.52 42.0025 62.52V62.376C42.0025 62.296 42.0745 62.16 42.2185 61.968C42.3785 61.776 42.5705 61.568 42.7945 61.344C43.0185 61.104 43.2505 60.88 43.4905 60.672C43.7305 60.448 43.9305 60.288 44.0905 60.192C44.4265 59.968 44.7705 59.832 45.1225 59.784C45.4905 59.736 45.8025 59.816 46.0585 60.024C46.1065 60.072 46.1865 60.152 46.2985 60.264C46.4105 60.376 46.5385 60.504 46.6825 60.648C46.8425 60.776 47.0025 60.912 47.1625 61.056L48.0505 61.848L47.6185 63.048C47.4105 63.688 47.3545 64.248 47.4505 64.728C47.5625 65.208 47.7225 65.624 47.9305 65.976C48.0105 66.152 48.1705 66.32 48.4105 66.48C48.6665 66.64 48.9065 66.736 49.1305 66.768C49.2585 66.784 49.3785 66.832 49.4905 66.912C49.6025 66.992 49.6585 67.12 49.6585 67.296C49.6585 67.456 49.6265 67.584 49.5625 67.68C49.4985 67.776 49.3865 67.84 49.2265 67.872C48.6985 67.936 48.2025 67.808 47.7385 67.488C47.2905 67.168 46.8745 66.64 46.4905 65.904C46.4265 65.808 46.3385 65.632 46.2265 65.376C46.1305 65.104 46.0745 64.928 46.0585 64.848C45.9945 64.928 45.8745 65.08 45.6985 65.304C45.5225 65.512 45.3865 65.664 45.2905 65.76C44.1545 66.912 43.1705 67.688 42.3385 68.088C41.5225 68.472 40.8425 68.488 40.2985 68.136ZM41.1625 66.792C41.1625 66.904 41.3305 66.904 41.6665 66.792C42.0185 66.664 42.3945 66.44 42.7945 66.12C43.3385 65.656 43.8825 65.144 44.4265 64.584C44.9865 64.024 45.4345 63.504 45.7705 63.024L46.2985 62.16C46.1385 61.792 45.9625 61.544 45.7705 61.416C45.5945 61.272 45.4425 61.2 45.3145 61.2C45.1065 61.2 44.7945 61.392 44.3785 61.776C43.9785 62.16 43.5465 62.672 43.0825 63.312C42.6185 63.952 42.1785 64.656 41.7625 65.424C41.6025 65.744 41.4585 66.056 41.3305 66.36C41.2185 66.648 41.1625 66.792 41.1625 66.792ZM51.327 69C51.023 69.08 50.775 69.016 50.583 68.808C50.407 68.6 50.303 68.28 50.271 67.848C50.239 67.416 50.287 66.904 50.415 66.312C50.495 66.12 50.559 65.936 50.607 65.76C50.655 65.568 50.679 65.416 50.679 65.304C50.711 65.144 50.775 64.912 50.871 64.608C50.967 64.288 51.071 63.96 51.183 63.624C51.295 63.288 51.399 62.992 51.495 62.736C51.607 62.464 51.679 62.296 51.711 62.232C51.775 62.232 51.831 62.176 51.879 62.064C51.927 61.952 51.951 61.84 51.951 61.728C51.951 61.6 51.975 61.456 52.023 61.296C52.087 61.136 52.151 61.024 52.215 60.96C52.215 60.88 52.231 60.792 52.263 60.696C52.311 60.584 52.335 60.496 52.335 60.432C52.335 60.368 52.351 60.304 52.383 60.24C52.431 60.176 52.455 60.112 52.455 60.048C52.567 59.84 52.711 59.512 52.887 59.064C53.079 58.6 53.279 58.088 53.487 57.528C53.711 56.968 53.919 56.416 54.111 55.872C54.303 55.328 54.455 54.872 54.567 54.504C54.695 54.12 54.759 53.888 54.759 53.808C54.759 53.68 54.791 53.584 54.855 53.52C54.919 53.456 55.015 53.424 55.143 53.424C55.191 53.376 55.247 53.344 55.311 53.328C55.391 53.312 55.463 53.304 55.527 53.304C55.527 53.304 55.559 53.336 55.623 53.4C55.687 53.464 55.783 53.56 55.911 53.688C56.039 53.8 56.111 53.928 56.127 54.072C56.159 54.216 56.175 54.384 56.175 54.576C56.175 54.784 56.151 54.968 56.103 55.128C56.055 55.288 55.959 55.52 55.815 55.824C55.671 56.128 55.447 56.6 55.143 57.24C55.015 57.56 54.879 57.864 54.735 58.152C54.591 58.424 54.519 58.592 54.519 58.656C54.519 58.72 54.487 58.816 54.423 58.944C54.375 59.072 54.319 59.232 54.255 59.424C54.191 59.552 54.103 59.744 53.991 60C53.879 60.24 53.759 60.504 53.631 60.792C53.519 61.064 53.423 61.304 53.343 61.512C53.263 61.704 53.223 61.816 53.223 61.848C53.223 61.912 53.215 61.976 53.199 62.04C53.199 62.104 53.167 62.168 53.103 62.232C53.039 62.232 52.999 62.28 52.983 62.376C52.983 62.456 52.983 62.496 52.983 62.496C52.983 62.656 52.855 63.08 52.599 63.768C52.343 64.648 52.103 65.456 51.879 66.192C51.671 66.928 51.567 67.52 51.567 67.968C51.567 68.352 51.559 68.608 51.543 68.736C51.527 68.848 51.455 68.936 51.327 69ZM55.8617 68.256C55.6217 68.224 55.4137 68.056 55.2377 67.752C55.0777 67.432 54.9817 67.144 54.9497 66.888C54.9657 66.76 54.9817 66.576 54.9977 66.336C55.0297 66.096 55.0617 65.848 55.0937 65.592C55.1577 65.288 55.2457 64.92 55.3577 64.488C55.4697 64.04 55.5817 63.592 55.6937 63.144C55.8217 62.696 55.9337 62.312 56.0297 61.992C56.1257 61.672 56.1897 61.48 56.2217 61.416C56.3017 61.288 56.4297 61.256 56.6057 61.32C56.7817 61.384 56.9257 61.48 57.0377 61.608C57.1337 61.736 57.1897 61.888 57.2057 62.064C57.2377 62.24 57.2137 62.496 57.1337 62.832C57.0697 63.168 56.9417 63.664 56.7497 64.32C56.5737 64.96 56.4377 65.48 56.3417 65.88C56.2617 66.264 56.2297 66.672 56.2457 67.104C56.1817 67.648 56.1337 67.984 56.1017 68.112C56.0697 68.224 55.9897 68.272 55.8617 68.256ZM58.6217 58.68C58.5577 58.728 58.4937 58.752 58.4297 58.752C58.3817 58.736 58.2937 58.688 58.1657 58.608C58.0537 58.592 57.9097 58.52 57.7337 58.392C57.5737 58.248 57.4297 58.104 57.3017 57.96C57.1897 57.8 57.1337 57.704 57.1337 57.672C57.1177 57.512 57.1257 57.312 57.1577 57.072C57.2057 56.816 57.2937 56.592 57.4217 56.4C57.5497 56.192 57.7337 56.08 57.9737 56.064C58.0377 56.064 58.0937 56.072 58.1417 56.088C58.1897 56.104 58.3337 56.16 58.5737 56.256C58.7017 56.496 58.8297 56.768 58.9577 57.072C59.0857 57.36 59.1417 57.648 59.1257 57.936C59.1097 58.208 58.9417 58.456 58.6217 58.68ZM66.5783 68.712C66.4183 68.712 66.2503 68.624 66.0743 68.448C65.9143 68.272 65.7703 68.056 65.6423 67.8C65.5303 67.528 65.4743 67.272 65.4743 67.032C65.4743 66.792 65.5303 66.344 65.6423 65.688C65.7703 65.032 65.9223 64.368 66.0983 63.696C66.2263 63.28 66.2663 63.04 66.2183 62.976C66.1703 62.912 65.9543 63 65.5703 63.24C65.3463 63.352 65.1463 63.472 64.9703 63.6C64.7943 63.712 64.6423 63.84 64.5143 63.984C64.4343 64.048 64.3143 64.152 64.1543 64.296C63.9943 64.44 63.8263 64.576 63.6503 64.704C63.4423 64.864 63.1783 65.088 62.8583 65.376C62.5383 65.664 62.2183 65.952 61.8983 66.24C61.5943 66.528 61.3623 66.752 61.2023 66.912C61.1703 66.976 61.1223 67.032 61.0583 67.08C60.9943 67.128 60.9223 67.16 60.8423 67.176C60.7623 67.176 60.6743 67.16 60.5783 67.128C60.4023 67.08 60.2343 66.976 60.0743 66.816C59.9303 66.656 59.8583 66.472 59.8583 66.264C59.8583 66.104 59.9223 65.832 60.0503 65.448C60.1783 65.048 60.3463 64.568 60.5543 64.008C60.7783 63.448 61.0343 62.856 61.3223 62.232C61.3703 62.152 61.4103 62.056 61.4423 61.944C61.4743 61.816 61.4983 61.68 61.5143 61.536C61.5463 61.392 61.5623 61.256 61.5623 61.128C61.5623 61.048 61.5703 60.968 61.5863 60.888C61.6183 60.792 61.6503 60.704 61.6823 60.624C61.7303 60.528 61.7703 60.464 61.8023 60.432C61.8663 60.304 61.9783 60.272 62.1383 60.336C62.2983 60.384 62.4343 60.496 62.5463 60.672C62.7863 60.896 62.9063 61.176 62.9063 61.512C62.9223 61.848 62.8423 62.264 62.6663 62.76C62.6023 62.872 62.5463 62.984 62.4983 63.096C62.4663 63.192 62.4343 63.28 62.4023 63.36C62.3703 63.424 62.3463 63.48 62.3303 63.528C62.3143 63.56 62.3063 63.576 62.3063 63.576C62.3703 63.576 62.5143 63.504 62.7383 63.36C62.9623 63.216 63.2263 63.056 63.5303 62.88C63.7703 62.704 63.9783 62.544 64.1543 62.4C64.3463 62.24 64.5063 62.12 64.6343 62.04C64.7623 61.944 64.8423 61.896 64.8743 61.896C64.9383 61.896 65.0183 61.872 65.1143 61.824C65.2103 61.776 65.2903 61.72 65.3543 61.656C65.4183 61.592 65.4663 61.56 65.4983 61.56C65.5463 61.544 65.5703 61.536 65.5703 61.536C65.5703 61.536 65.6023 61.536 65.6663 61.536C65.7303 61.52 65.7943 61.48 65.8583 61.416C65.9863 61.32 66.1543 61.296 66.3623 61.344C66.5703 61.376 66.7623 61.456 66.9383 61.584C67.1143 61.712 67.2023 61.856 67.2023 62.016C67.2023 62.08 67.2183 62.136 67.2503 62.184C67.2983 62.216 67.3223 62.232 67.3223 62.232C67.4503 62.232 67.5303 62.432 67.5623 62.832C67.6103 63.232 67.5703 63.616 67.4423 63.984C67.4423 64.224 67.3943 64.512 67.2983 64.848C67.2183 65.184 67.1463 65.504 67.0823 65.808C66.9543 66.208 66.8663 66.56 66.8183 66.864C66.7703 67.168 66.7623 67.424 66.7943 67.632C66.8263 67.84 66.8823 68.008 66.9623 68.136C67.0263 68.248 67.0263 68.376 66.9623 68.52C66.8983 68.648 66.7703 68.712 66.5783 68.712ZM70.399 67.824C70.335 67.824 70.255 67.808 70.159 67.776C70.079 67.728 70.039 67.704 70.039 67.704C70.039 67.64 70.015 67.56 69.967 67.464C69.935 67.368 69.919 67.288 69.919 67.224C69.807 67.16 69.743 67.096 69.727 67.032C69.711 66.952 69.735 66.824 69.799 66.648C69.895 66.488 70.023 66.232 70.183 65.88C70.343 65.512 70.511 65.12 70.687 64.704C70.863 64.272 71.031 63.848 71.191 63.432C71.351 63.016 71.487 62.664 71.599 62.376C71.711 62.072 71.775 61.888 71.791 61.824C71.791 61.76 71.815 61.68 71.863 61.584C71.911 61.488 71.967 61.408 72.031 61.344C72.159 61.232 72.295 61.224 72.439 61.32C72.583 61.4 72.703 61.544 72.799 61.752C72.911 61.944 72.967 62.16 72.967 62.4C72.967 62.512 72.887 62.8 72.727 63.264C72.567 63.712 72.351 64.248 72.079 64.872C71.823 65.496 71.535 66.128 71.215 66.768C70.975 67.232 70.823 67.528 70.759 67.656C70.695 67.768 70.575 67.824 70.399 67.824ZM73.927 58.728C73.735 58.728 73.527 58.656 73.303 58.512C73.095 58.352 72.911 58.16 72.751 57.936C72.607 57.696 72.535 57.456 72.535 57.216C72.535 57.136 72.583 57.024 72.679 56.88C72.775 56.736 72.871 56.592 72.967 56.448C73.063 56.304 73.111 56.216 73.111 56.184C73.239 56.184 73.335 56.192 73.399 56.208C73.479 56.208 73.575 56.24 73.687 56.304C73.863 56.704 74.079 57.032 74.335 57.288C74.607 57.544 74.743 57.76 74.743 57.936C74.743 58.288 74.711 58.512 74.647 58.608C74.583 58.688 74.343 58.728 73.927 58.728ZM78.6435 68.16C78.3075 68.448 77.9155 68.616 77.4675 68.664C77.0355 68.712 76.6115 68.648 76.1955 68.472C75.7795 68.28 75.4355 67.992 75.1635 67.608C74.8915 67.256 74.7155 66.856 74.6355 66.408C74.5555 65.944 74.5475 65.344 74.6115 64.608C74.6595 63.984 74.8595 63.36 75.2115 62.736C75.5635 62.096 75.9875 61.528 76.4835 61.032C76.9955 60.536 77.4995 60.192 77.9955 60C78.2355 59.84 78.4355 59.768 78.5955 59.784C78.7715 59.784 79.0355 59.8 79.3875 59.832C79.7555 59.88 80.0275 59.952 80.2035 60.048C80.3955 60.144 80.5475 60.272 80.6595 60.432C80.8995 60.672 81.0595 60.912 81.1395 61.152C81.2195 61.376 81.2595 61.6 81.2595 61.824C81.1955 62.176 80.9555 62.608 80.5395 63.12C80.1395 63.616 79.6115 64.024 78.9555 64.344C78.6035 64.456 78.2195 64.504 77.8035 64.488C77.3875 64.472 77.0435 64.368 76.7715 64.176C76.4675 64.048 76.2675 64.072 76.1715 64.248C76.0755 64.408 75.9875 64.808 75.9075 65.448C75.8435 66.056 75.8915 66.504 76.0515 66.792C76.2115 67.064 76.4275 67.224 76.6995 67.272C77.0195 67.336 77.2675 67.384 77.4435 67.416C77.6355 67.432 77.8675 67.36 78.1395 67.2C78.3955 67.04 78.5555 66.952 78.6195 66.936C78.6835 66.904 78.7315 66.872 78.7635 66.84C78.8115 66.792 78.9155 66.688 79.0755 66.528C79.1875 66.416 79.2755 66.336 79.3395 66.288C79.4035 66.224 79.4755 66.192 79.5555 66.192C79.6355 66.192 79.7075 66.232 79.7715 66.312C79.8355 66.376 79.8995 66.424 79.9635 66.456C80.1235 66.456 80.1555 66.552 80.0595 66.744C79.9795 66.936 79.8115 67.168 79.5555 67.44C79.2995 67.696 78.9955 67.936 78.6435 68.16ZM78.6195 63.072C78.7955 62.992 78.9795 62.88 79.1715 62.736C79.3635 62.576 79.5235 62.408 79.6515 62.232C79.7955 62.04 79.8675 61.88 79.8675 61.752C79.8675 61.528 79.7635 61.344 79.5555 61.2C79.3475 61.04 79.0355 61.016 78.6195 61.128C78.4435 61.176 78.2435 61.296 78.0195 61.488C77.7955 61.664 77.5795 61.864 77.3715 62.088C77.1795 62.312 77.0195 62.512 76.8915 62.688C76.7795 62.864 76.7395 62.968 76.7715 63C76.8195 63.08 76.9555 63.144 77.1795 63.192C77.4035 63.224 77.6515 63.232 77.9235 63.216C78.2115 63.2 78.4435 63.152 78.6195 63.072Z" fill="white"/>
</svg>

<svg xmlns="http://www.w3.org/2000/svg" width="82" height="74" fill="none" viewBox="0 0 82 74"><path fill="#fff" d="M6.1 72.1c-1.8-1.133-3.2-2.733-4.2-4.8-1-2.133-1.467-4.267-1.4-6.4-.067-4.133.267-8.3 1-12.5.8-4.267 1.833-8.4 3.1-12.4.867-2.4 1.8-4.867 2.8-7.4 1.067-2.6 2.133-5.033 3.2-7.3 1.067-2.267 2-4.067 2.8-5.4 2.067-3.4 4.233-6.2 6.5-8.4 2.333-2.267 4.067-3.733 5.2-4.4.933-.533 2.533-1.067 4.8-1.6 2.333-.533 4.733-.5 7.2.1a31.172 31.172 0 0 1 4.8 1.7c1.533.667 2.533 1.233 3 1.7l1.4 2.1c.467.533.7 1.2.7 2 .067.533-.133 1.2-.6 2-.4.733-.933 1.267-1.6 1.6-.6.333-1.2.167-1.8-.5-.867-1.333-1.767-2.233-2.7-2.7a61.344 61.344 0 0 0-3-1.6c-.733-.467-1.733-.7-3-.7a13.167 13.167 0 0 0-3.9.4c-1.333.333-2.5.9-3.5 1.7-.667.6-1.533 1.5-2.6 2.7a47.874 47.874 0 0 0-3.2 3.8c-1.067 1.4-1.933 2.767-2.6 4.1-1.8 3.133-3.433 6.3-4.9 9.5-1.4 3.133-2.6 6.567-3.6 10.3-.267.933-.633 2.3-1.1 4.1l-1.2 5.4c-.4 1.8-.667 3.267-.8 4.4-.467 3.267-.633 6.133-.5 8.6.2 2.467 1.067 4.167 2.6 5.1 1.533.933 4.067.8 7.6-.4 1.533-.2 3.167-.867 4.9-2 1.8-1.133 3.533-2.533 5.2-4.2 1.733-1.733 3.2-3.567 4.4-5.5a76.544 76.544 0 0 0 3-6.3c.933-2.067 1.433-3.767 1.5-5.1.067-1.333-.567-1.967-1.9-1.9-2.467-.267-4.467-.333-6-.2-1.533.067-2.9-.167-4.1-.7-.467-.733-.667-1.467-.6-2.2.067-.733.467-1.467 1.2-2.2.733-.267 1.967-.467 3.7-.6 1.733-.133 3.6-.067 5.6.2 2 .2 3.767.667 5.3 1.4 1.133.533 1.933 1.333 2.4 2.4.467 1 .7 2.167.7 3.5 0 1.333-.133 2.7-.4 4.1-.333 1.467-1.067 3.233-2.2 5.3-1.067 2-2.367 4.133-3.9 6.4-1 1.4-2.4 2.933-4.2 4.6a48.282 48.282 0 0 1-5.4 4.5c-1.8 1.333-3.333 2.233-4.6 2.7-2.667 1.2-5.4 1.967-8.2 2.3-2.8.4-5.1-.033-6.9-1.3Zm34.198-3.964a.725.725 0 0 0-.24-.288c-.096-.08-.144-.152-.144-.216a.789.789 0 0 0-.023-.192.298.298 0 0 0-.096-.216c-.08-.096-.073-.312.023-.648.096-.352.257-.776.48-1.272a21.17 21.17 0 0 1 .792-1.608c.128-.128.256-.296.384-.504.129-.208.225-.344.289-.408a.23.23 0 0 1 .072-.168c.047-.064.103-.096.167-.096v-.144c0-.08.072-.216.216-.408.16-.192.352-.4.576-.624.225-.24.457-.464.697-.672.24-.224.44-.384.6-.48a2.45 2.45 0 0 1 1.032-.408c.367-.048.68.032.936.24l.24.24.383.384c.16.128.32.264.48.408l.889.792-.433 1.2c-.208.64-.264 1.2-.168 1.68.112.48.272.896.48 1.248.08.176.24.344.48.504.257.16.497.256.72.288a.779.779 0 0 1 .36.144c.112.08.168.208.168.384 0 .16-.032.288-.096.384-.063.096-.175.16-.335.192-.528.064-1.024-.064-1.488-.384-.448-.32-.864-.848-1.248-1.584a3.887 3.887 0 0 1-.264-.528 5.236 5.236 0 0 1-.168-.528l-.36.456c-.176.208-.313.36-.408.456-1.136 1.152-2.12 1.928-2.952 2.328-.816.384-1.496.4-2.04.048Zm.864-1.344c0 .112.169.112.505 0 .352-.128.727-.352 1.127-.672a23.951 23.951 0 0 0 1.633-1.536c.56-.56 1.008-1.08 1.343-1.56l.528-.864c-.16-.368-.336-.616-.528-.744-.176-.144-.328-.216-.456-.216-.208 0-.52.192-.935.576-.4.384-.832.896-1.296 1.536a18.91 18.91 0 0 0-1.32 2.112c-.16.32-.304.632-.432.936l-.169.432ZM51.328 69c-.304.08-.552.016-.744-.192-.176-.208-.28-.528-.312-.96-.032-.432.016-.944.144-1.536a4.56 4.56 0 0 0 .192-.552 2 2 0 0 0 .072-.456c.032-.16.096-.392.192-.696a34.097 34.097 0 0 1 .624-1.872c.112-.272.184-.44.216-.504.064 0 .12-.056.168-.168a.847.847 0 0 0 .072-.336c0-.128.024-.272.072-.432a1.03 1.03 0 0 1 .192-.336.84.84 0 0 1 .048-.264.728.728 0 0 0 .072-.264c0-.064.016-.128.048-.192a.32.32 0 0 0 .072-.192c.112-.208.256-.536.432-.984.192-.464.392-.976.6-1.536a42.953 42.953 0 0 0 1.08-3.024c.128-.384.192-.616.192-.696 0-.128.032-.224.096-.288.064-.064.16-.096.288-.096a.356.356 0 0 1 .168-.096c.08-.016.152-.024.216-.024l.096.096.288.288c.128.112.2.24.216.384.032.144.048.312.048.504 0 .208-.024.392-.072.552-.048.16-.144.392-.288.696l-.672 1.416c-.128.32-.264.624-.408.912-.144.272-.216.44-.216.504s-.032.16-.096.288c-.048.128-.104.288-.168.48-.064.128-.152.32-.264.576-.112.24-.232.504-.36.792-.112.272-.208.512-.288.72-.08.192-.12.304-.12.336a.789.789 0 0 1-.024.192c0 .064-.032.128-.096.192-.064 0-.104.048-.12.144v.12c0 .16-.128.584-.384 1.272-.256.88-.496 1.688-.72 2.424-.208.736-.312 1.328-.312 1.776a7.7 7.7 0 0 1-.024.768c-.016.112-.088.2-.216.264Zm4.535-.744c-.24-.032-.448-.2-.624-.504a2.732 2.732 0 0 1-.288-.864c.016-.128.032-.312.048-.552.032-.24.064-.488.096-.744.064-.304.152-.672.264-1.104l.336-1.344c.128-.448.24-.832.336-1.152.096-.32.16-.512.192-.576.08-.128.208-.16.384-.096.176.064.32.16.432.288.096.128.152.28.168.456.032.176.008.432-.072.768a17.41 17.41 0 0 1-.384 1.488c-.176.64-.312 1.16-.408 1.56-.08.384-.112.792-.096 1.224-.064.544-.112.88-.144 1.008-.032.112-.112.16-.24.144Zm2.76-9.576a.32.32 0 0 1-.192.072 1.583 1.583 0 0 1-.264-.144c-.112-.016-.256-.088-.432-.216a5.498 5.498 0 0 1-.432-.432c-.112-.16-.168-.256-.168-.288-.016-.16-.008-.36.024-.6.048-.256.136-.48.264-.672a.668.668 0 0 1 .552-.336c.064 0 .12.008.168.024.048.016.192.072.432.168.128.24.256.512.384.816.128.288.184.576.168.864-.016.272-.184.52-.504.744Zm7.956 10.032c-.16 0-.328-.088-.504-.264a2.855 2.855 0 0 1-.432-.648 2.022 2.022 0 0 1-.168-.768c0-.24.056-.688.168-1.344.128-.656.28-1.32.456-1.992.128-.416.168-.656.12-.72-.048-.064-.264.024-.648.264a4.25 4.25 0 0 0-.6.36c-.176.112-.328.24-.456.384-.08.064-.2.168-.36.312-.16.144-.328.28-.504.408-.208.16-.472.384-.792.672l-.96.864a38.43 38.43 0 0 0-.696.672.528.528 0 0 1-.36.264.84.84 0 0 1-.264-.048 1.146 1.146 0 0 1-.504-.312.801.801 0 0 1-.216-.552c0-.16.064-.432.192-.816.128-.4.296-.88.504-1.44.224-.56.48-1.152.768-1.776a1.2 1.2 0 0 0 .12-.288c.032-.128.056-.264.072-.408.032-.144.048-.28.048-.408 0-.08.008-.16.024-.24.032-.096.064-.184.096-.264a.808.808 0 0 1 .12-.192c.064-.128.176-.16.336-.096.16.048.296.16.408.336.24.224.36.504.36.84.016.336-.064.752-.24 1.248-.064.112-.12.224-.168.336a4.804 4.804 0 0 1-.096.264c-.032.064-.056.12-.072.168l-.024.048c.064 0 .208-.072.432-.216.224-.144.488-.304.792-.48.24-.176.448-.336.624-.48.192-.16.352-.28.48-.36.128-.096.208-.144.24-.144a.566.566 0 0 0 .24-.072.914.914 0 0 0 .24-.168c.064-.064.112-.096.144-.096l.072-.024h.096a.425.425 0 0 0 .192-.12c.128-.096.296-.12.504-.072.208.032.4.112.576.24.176.128.264.272.264.432 0 .064.016.12.048.168l.072.048c.128 0 .208.2.24.6.048.4.008.784-.12 1.152 0 .24-.048.528-.144.864-.08.336-.152.656-.216.96-.128.4-.216.752-.264 1.056-.048.304-.056.56-.024.768.032.208.088.376.168.504.064.112.064.24 0 .384-.064.128-.192.192-.384.192Zm3.821-.888a.79.79 0 0 1-.24-.048l-.12-.072a.566.566 0 0 0-.072-.24.79.79 0 0 1-.048-.24c-.112-.064-.176-.128-.192-.192-.016-.08.008-.208.072-.384a8.33 8.33 0 0 0 .384-.768c.16-.368.328-.76.504-1.176.176-.432.344-.856.504-1.272l.408-1.056c.112-.304.176-.488.192-.552 0-.064.024-.144.072-.24a.914.914 0 0 1 .168-.24c.128-.112.264-.12.408-.024.144.08.264.224.36.432.112.192.168.408.168.648 0 .112-.08.4-.24.864-.16.448-.376.984-.648 1.608a28.046 28.046 0 0 1-.864 1.896c-.24.464-.392.76-.456.888-.064.112-.184.168-.36.168Zm3.528-9.096c-.192 0-.4-.072-.624-.216a2.702 2.702 0 0 1-.552-.576 1.39 1.39 0 0 1-.216-.72c0-.08.048-.192.144-.336l.288-.432c.096-.144.144-.232.144-.264.128 0 .224.008.288.024.08 0 .176.032.288.096.176.4.392.728.648.984.272.256.408.472.408.648 0 .352-.032.576-.096.672-.064.08-.304.12-.72.12Zm4.716 9.432a2.11 2.11 0 0 1-1.175.504 2.506 2.506 0 0 1-1.273-.192 2.564 2.564 0 0 1-1.031-.864 2.712 2.712 0 0 1-.529-1.2c-.08-.464-.088-1.064-.023-1.8.047-.624.248-1.248.6-1.872a7.516 7.516 0 0 1 1.272-1.704c.512-.496 1.016-.84 1.512-1.032.24-.16.44-.232.6-.216.175 0 .44.016.791.048.368.048.64.12.817.216.192.096.344.224.456.384.24.24.4.48.48.72.08.224.12.448.12.672-.065.352-.305.784-.72 1.296-.4.496-.928.904-1.585 1.224-.352.112-.736.16-1.151.144-.416-.016-.76-.12-1.032-.312-.305-.128-.505-.104-.6.072-.096.16-.184.56-.264 1.2-.064.608-.017 1.056.144 1.344.16.272.375.432.647.48.32.064.569.112.745.144.191.016.424-.056.695-.216.257-.16.416-.248.48-.264a.558.558 0 0 0 .144-.096l.313-.312c.112-.112.2-.192.264-.24a.298.298 0 0 1 .215-.096c.08 0 .152.04.216.12a.752.752 0 0 0 .192.144c.16 0 .193.096.097.288-.08.192-.249.424-.505.696-.256.256-.56.496-.912.72Zm-.023-5.088c.175-.08.36-.192.551-.336.192-.16.352-.328.48-.504.145-.192.217-.352.217-.48 0-.224-.105-.408-.313-.552-.208-.16-.52-.184-.936-.072-.175.048-.376.168-.6.36-.224.176-.44.376-.648.6a9.792 9.792 0 0 0-.48.6c-.112.176-.151.28-.12.312.049.08.184.144.409.192.223.032.471.04.743.024.288-.016.52-.064.697-.144Z"/></svg>
